!!!OTL: EINSAM EINSAM NEIN DAS BIN ICH NICHT
!!!ARE: Europa, Mitteleuropa, Deutschland
!!!SCT: F0448
!!!YEM: Copyright 1995, estate of Helmut Schaffrath.
**kern
*ICvox
*Ivox
*M3/4
*k[f#c#g#]
*A:
=1
{4a
4b
4r
=2
8.cc#
16dd
4dd
4r}
=3
{4.cc#
8ee
8g#
8b
=4
2a
4r}
=5
{8f#
8a
8a
8a
16b
16a
16g#
16f#
=6
8.f#
16e
4e
4r}
=7
{8a
8cc#
16dd
16cc#
16b
16cc#
8ee
16dd
16b
=8
8.a
16b
4g#
4r}
=9
{8a
8a
8b
8a
8g#
8a
=10
4g#
4f#
4r}
=11
{8e
8a
4cc#
12ee
12dd
12b
=12
2a
4r}
==
!!!AGN: Heimat -, Wander - Lied
!!!ONB: ESAC (Essen Associative Code) Database: FINK
!!!AMT: simple triple
!!!AIN: vox
!!!EED: Helmut Schaffrath
!!!EEV: 1.0
*-
